public/assets/wa.svg

<svg width="36" height="59" viewBox="0 0 36 59" fill="none" xmlns="http://www.w3.org/2000/svg">
<path d="M12.219 58.605C8.86033 58.6727 5.52389 58.0456 2.41901 56.763C0.782009 56.149 -0.415991 55.163 0.242009 53.206C0.921009 51.184 2.45501 51.318 4.12901 51.835C7.81671 53.1237 11.7484 53.5606 15.629 53.113C17.7796 52.7927 19.7911 51.855 21.4192 50.4138C23.0473 48.9727 24.2221 47.0899 24.801 44.994C25.201 43.521 24.896 43.161 23.431 43.653C22.4069 43.9946 21.3514 44.2338 20.28 44.367C18.8228 44.5976 17.3337 44.2409 16.139 43.3753C14.9443 42.5096 14.1417 41.2055 13.907 39.749C13.6226 37.722 13.9537 35.6563 14.8573 33.8198C15.761 31.9832 17.1956 30.4605 18.975 29.449C23.035 27.41 27.56 29.649 29.397 34.565C33.237 44.824 26.4 59.517 12.219 58.605Z" fill="#E69797"/>
<path d="M11.361 57.483C8.646 58.183 6.155 56.827 3.547 56.071C3.06275 55.9665 2.61796 55.727 2.26405 55.3804C1.91014 55.0337 1.66154 54.594 1.547 54.112C1.433 53.641 1.422 53.007 1.938 52.772C2.39801 52.561 2.91238 52.4987 3.40945 52.5939C3.90651 52.6891 4.3615 52.937 4.711 53.303C6.192 54.703 7.95701 53.503 9.61901 53.952C13.47 55 17.366 54 21.06 52.824C22.575 52.342 23.073 50.309 23.96 48.958C24.783 47.4406 25.482 45.8591 26.05 44.229C26.35 43.556 25.931 42.716 25.58 42.809C24.017 43.225 22.339 41.437 20.88 43.125C20.5884 43.4324 20.1933 43.6208 19.7709 43.6538C19.3485 43.6869 18.9289 43.5623 18.593 43.304C13.949 40.604 13.63 35.683 17.293 32.504C18.335 31.604 18.858 30.066 20.784 30.042C25.599 29.983 29.227 33.354 29.461 38.585C29.586 41.377 29.424 44.133 27.685 46.565C27.356 47.025 27.49 47.85 27.494 48.506C27.525 49.4267 27.1923 50.3226 26.568 51C22.546 55.486 17.693 58.041 11.361 57.483Z" fill="#EB9291"/>
<path d="M20.137 39.09C19.242 39.108 18.473 39.023 18.537 37.799C18.637 35.967 20.506 34.021 22.222 34.084C22.5123 34.0583 22.8047 34.0937 23.0805 34.1878C23.3563 34.2819 23.6093 34.4327 23.8233 34.6305C24.0373 34.8283 24.2076 35.0687 24.3231 35.3363C24.4386 35.6038 24.4968 35.8926 24.494 36.184C24.557 37.561 22.161 39.1 20.137 39.09Z" fill="#F9F0EF"/>
<path d="M27.405 35.89C27.528 37.359 27.644 38.642 27.726 39.928C27.731 40.018 27.491 40.128 27.268 40.299C26.218 38.912 25.316 37.593 27.405 35.89Z" fill="#E69797"/>
<path d="M7.24701 9.932L33.659 2" stroke="#EB9394" stroke-width="4" stroke-linecap="round" stroke-linejoin="round"/>
</svg>

<svg xmlns="http://www.w3.org/2000/svg" viewBox="0 0 35.659 59.562">
  <defs>
    <style>
      .cls-1 {
        fill: #fcfdfd;
      }

      .cls-2 {
        fill: #e69797;
      }

      .cls-3 {
        fill: #eb9291;
      }

      .cls-4 {
        fill: #f9f0ef;
      }

      .cls-5 {
        fill: none;
        stroke: #eb9394;
        stroke-linecap: round;
        stroke-linejoin: round;
        stroke-width: 4px;
      }
    </style>
  </defs>
  <g id="Layer_2" data-name="Layer 2">
    <g id="Layer_1-2" data-name="Layer 1">
      <path class="cls-1" d="M0,58.563a1.757,1.757,0,0,1,2,1A2.738,2.738,0,0,1,0,58.563Z"/>
      <path class="cls-2" d="M12.219,58.605a24.381,24.381,0,0,1-9.8-1.842c-1.637-.614-2.835-1.6-2.177-3.557.679-2.022,2.213-1.888,3.887-1.371a25.873,25.873,0,0,0,11.5,1.278,11.232,11.232,0,0,0,9.172-8.119c.4-1.473.095-1.833-1.37-1.341a16.323,16.323,0,0,1-3.151.714,5.573,5.573,0,0,1-6.373-4.618,10.215,10.215,0,0,1,5.068-10.3c4.06-2.039,8.585.2,10.422,5.116C33.237,44.824,26.4,59.517,12.219,58.605Z"/>
      <path class="cls-3" d="M11.361,57.483c-2.715.7-5.206-.656-7.814-1.412a2.625,2.625,0,0,1-2-1.959c-.114-.471-.125-1.105.391-1.34a2.432,2.432,0,0,1,2.773.531c1.481,1.4,3.246.2,4.908.649C13.47,55,17.366,54,21.06,52.824c1.515-.482,2.013-2.515,2.9-3.866a32.009,32.009,0,0,0,2.09-4.729c.3-.673-.119-1.513-.47-1.42-1.563.416-3.241-1.372-4.7.316a1.713,1.713,0,0,1-2.287.179c-4.644-2.7-4.963-7.621-1.3-10.8,1.042-.9,1.565-2.438,3.491-2.462,4.815-.059,8.443,3.312,8.677,8.543.125,2.792-.037,5.548-1.776,7.98-.329.46-.195,1.285-.191,1.941A3.506,3.506,0,0,1,26.568,51C22.546,55.486,17.693,58.041,11.361,57.483Z"/>
      <path class="cls-4" d="M20.137,39.09c-.895.018-1.664-.067-1.6-1.291.1-1.832,1.969-3.778,3.685-3.715a2.088,2.088,0,0,1,2.272,2.1C24.557,37.561,22.161,39.1,20.137,39.09Z"/>
      <path class="cls-2" d="M27.405,35.89c.123,1.469.239,2.752.321,4.038.005.09-.235.2-.458.371C26.218,38.912,25.316,37.593,27.405,35.89Z"/>
      <line class="cls-5" x1="7.247" y1="9.932" x2="33.659" y2="2"/>
    </g>
  </g>
</svg>
